X: 651
T: Adieu To Prince Edwards Isle
R: reel
M: 4/4
K: Gmajor
D2|G3cB2D2|G3E3/2E2B,2|C2D3G3F|G6cc|
B2AFG2d2|(d3B)c2c2|B/(G/ G3)=F2E2|D6c2|
B2F2G2d3/2d/|d3Bc2d3/2c/|B/(G/G) GE=F2E2|D6D2|
G3cB2 (DE)|=F2E2(DC)B,2|CD3G3F|G4 z2||

